X:3252
T:Come under my plaidie
R:Jig
O:England
M:6/8
N:Contentment is Wealth
A:Lancashire
B:Winder
K:Em
g | dBB BAB | dBB B2g | dBB BAB | GEE E2g | \
dBB BAG | dBB BAG | AGA BAB | GEE E2 :|*
 |:d | gfg aga | bag fef | gfg aga | bge e2g | \
bgb afa | geg dBG | AGA BAB | GEE E2 :|**


